X: 1147
T: Dever the Dancer.
C:Gillan.
B:O'Neill's Music of Ireland
N:O'Neill's - 1147
Z:Transcribed by Stephen Foy (shf@access.digex.net)
Z:abc 1.6
M:9/8
R:slipjig
K:D
BEE BEE G2 A | BEE BEE FGA | BEE BEE G2 A | Bcd ABG FED :|
ded dAF G2 A | ded def gfe | ded dAF G2 A | Bcd ABG FED |
ded dAF G2 A | ded def gfe | afd ece d2 d | Add ABG FED ||


